X:230
T:En Vray Amoure
C:Henry VIII
L:1/8
M:3/4
O:England
Z:Andy Hornby
%%TUNEURL: http://www.leeds.ac.uk/music/Info/RRTuneBk/gettune/00000db1.html
%%ID:00000db1
K:G
A2|B3B BB|c4B2|A3/2B/2 c/2d/2c BA|G4A2|
B3B BB|c4B2|Ac- c/2B/2A- A^G|1A4:|2A6|
|:G3F E2|D4F2|[M:4/4]E3/2F/2 G/2A/2B- BA- A^G|1A6:|2A4|
|A2|B3B BB|c4B2|A3/2B/2 c/2d/2c BA|G4A2|
B3B BB|c4B2|Ac- c/2B/2A- A^G|A3|:c cB|
c3c cB|c3c BB|Ac- c/2B/2A- A^G|1A3:|2A4||
